symbols/web/markunread_mailbox/materialsymbolsrounded/markunread_mailbox_wght500_24px.svg

<svg xmlns="http://www.w3.org/2000/svg" height="24" width="24"><path d="M4.075 22.2q-.95 0-1.613-.662-.662-.663-.662-1.613v-9.85q0-.95.662-1.612.663-.663 1.613-.663H6V2.775q0-.475.325-.813.325-.337.825-.337h5.8q.475 0 .813.337.337.338.337.813V4.65q0 .5-.337.825-.338.325-.813.325H8V13q0 .425-.287.712Q7.425 14 7 14t-.713-.288Q6 13.425 6 13v-2.925H4.075v9.85h15.85v-9.85H10V7.8h9.925q.95 0 1.613.663.662.662.662 1.612v9.85q0 .95-.662 1.613-.663.662-1.613.662Zm0-12.125V14v-3.925 9.85-9.85Z"/></svg>

<svg xmlns="http://www.w3.org/2000/svg" height="24" width="24"><path d="M4.075 22.2Q3.125 22.2 2.462 21.538Q1.8 20.875 1.8 19.925V10.075Q1.8 9.125 2.462 8.463Q3.125 7.8 4.075 7.8H6V2.775Q6 2.3 6.325 1.962Q6.65 1.625 7.15 1.625H12.95Q13.425 1.625 13.763 1.962Q14.1 2.3 14.1 2.775V4.65Q14.1 5.15 13.763 5.475Q13.425 5.8 12.95 5.8H8V13Q8 13.425 7.713 13.712Q7.425 14 7 14Q6.575 14 6.287 13.712Q6 13.425 6 13V10.075H4.075Q4.075 10.075 4.075 10.075Q4.075 10.075 4.075 10.075V19.925Q4.075 19.925 4.075 19.925Q4.075 19.925 4.075 19.925H19.925Q19.925 19.925 19.925 19.925Q19.925 19.925 19.925 19.925V10.075Q19.925 10.075 19.925 10.075Q19.925 10.075 19.925 10.075H10V7.8H19.925Q20.875 7.8 21.538 8.463Q22.2 9.125 22.2 10.075V19.925Q22.2 20.875 21.538 21.538Q20.875 22.2 19.925 22.2ZM4.075 10.075V13Q4.075 13.425 4.075 13.712Q4.075 14 4.075 14Q4.075 14 4.075 13.712Q4.075 13.425 4.075 13V10.075Q4.075 10.075 4.075 10.075Q4.075 10.075 4.075 10.075V19.925Q4.075 19.925 4.075 19.925Q4.075 19.925 4.075 19.925Q4.075 19.925 4.075 19.925Q4.075 19.925 4.075 19.925V10.075Q4.075 10.075 4.075 10.075Q4.075 10.075 4.075 10.075Z"/></svg>
